X:348
T:Walls of Liscarrol, The
R:jig
H:Mostly played in Ddor, #187. See also #396.
D:Chieftains 1
Z:id:hn-jig-348
M:6/8
K:Edor
edB BAF|AFE E2F|AFF dFF|ABc def|edB BAF|AFE E2F|AFF dFF|EFE E2e:|
eBe fdB|eBe fdB|AFF dFF|ABc def|1 eBe fdB|eBe fdB|AFF dFF|EFE E2e:|
[2 edB BAF|AFE E2F|AFF dFF|EFE E2e||

